!!!!SEGMENT: Mou3016-Le_grant_desir_daymer_my_tient_I
!!!id: Mou3016
!!!AGN: Secular work
!!!voices: 3
!!!COM: Jean Mouton
!!!OTL: Le grant desir d'aymer my tient I
**kern	**kern	**kern
*part3	*part2	*part1
*staff3	*staff2	*staff1
*I"Bassus	*I"Tenor	*I"Superius
*I'B	*I'T	*I'S
*clefGv2	*clefGv2	*clefG2
*k[b-]	*k[b-]	*k[b-]
*M2/1	*M2/1	*M2/1
*met(C|)	*met(C|)	*met(C|)
=1	=1	=1
1d	0r	0r
2d	.	.
2d	.	.
=2	=2	=2
2.d	0r	1r
4e	.	.
4d	.	1dd
4c	.	.
4B-y	.	.
4A	.	.
=3	=3	=3
2B-y	0r	2dd
4G	.	2dd
4A	.	.
4B-y	.	2.dd
4c	.	.
4d	.	.
4c	.	4ee
=4	=4	=4
4B-y	1d	4dd
4A	.	4cc
4G	.	4b-y
4F	.	4a
[1G	2d	2b-y
.	2d	4g
.	.	4a
=5	=5	=5
1G]	2.d	4b-y
.	.	4cc
.	.	4dd
.	4e	4cc
2r	4d	4b-y
.	4c	4a
[2d	4B-y	4g
.	4A	4f
=6	=6	=6
4d]	1B-y	2g
4c	.	.
4B-y	.	1dd
4A	.	.
4G	2r	.
4F	.	.
2G	2B-y	4cc
.	.	4b-y
=7	=7	=7
2F	1c	4a
.	.	4g
2F	.	2a
1G	2r	2b-y
.	2B-y	2dd
=8	=8	=8
2r	1c	4cc
.	.	4b-y
2A	.	4a
.	.	4g
2F	2r	4a
.	.	4g
4E	2d	[2b-y
4D	.	.
=9	=9	=9
2E	2.B-y	4b-]
.	.	4a
2E	.	1g
.	8AL	.
.	8GJ	.
1D	2A	.
.	2A	2f#i
=10	=10	=10
2r	2G	0g
2.d	4B-y	.
.	4A	.
.	4B-y	.
4c	4c	.
4B-y	[2d	.
4A	.	.
=11	=11	=11
4G	2d]	2r
4F	.	.
2G	4c	2b-y
.	4B-y	.
2F	4A	1cc
.	4G	.
2F	2A	.
=12	=12	=12
1G	2B-y	2r
.	2d	2b-y
2r	4c	[1cc
.	4B-y	.
2A	4A	.
.	4G	.
=13	=13	=13
2F	4A	2cc]
.	4G	.
4E	2.B-y	2dd
4D	.	.
2E	.	2.b-y
.	4A	.
2E	[2G	.
.	.	8aL
.	.	8gJ
=14	=14	=14
1D	4G]	2a
.	4F#i	.
.	4F#i	2a
.	4E	.
2r	2G	4g
.	.	4a
2G	2r	4b-y
.	.	4cc
=15	=15	=15
1B-y	0r	4dd
.	.	4ee
.	.	4ff
.	.	4dd
1c	.	2.ee
.	.	8ddL
.	.	8ccJ
=16	=16	=16
2.d	1r	4b-y
.	.	4a
.	.	4b-y
4c	.	4cc
4B-y	2r	1dd
4A	.	.
[2G	2G	.
=17	=17	=17
4G]	1B-y	0r
4F	.	.
4E	.	.
4D	.	.
2E	1c	.
2A	.	.
=18	=18	=18
4G	1.d	2r
4A	.	.
4B-y	.	2g
4A	.	.
4B-y	.	1b-y
4A	.	.
4G	2d	.
4F	.	.
=19	=19	=19
4E	2e	1.cc
4D	.	.
2E	2g	.
2D	2.f	.
[2B-y	.	[2dd
.	4e	.
=20	=20	=20
4B-]	4d	2dd]
4A	4c	.
2G	1B-y	2dd
2G	.	2dd
2F	2A	2dd
=21	=21	=21
4G	1B-y	4dd
4A	.	4cc
4B-y	.	4b-y
4c	.	4a
2.d	1r	2b-y
.	.	[2ff
8cL	.	.
8B-yJ	.	.
=22	=22	=22
2A	0r	2ff]
1B-y	.	4ee
.	.	4dd
.	.	4cc
.	.	4b-y
2A	.	2cc
=23	=23	=23
2B-y	2.G	2r
2.d	.	2b-y
.	4A	.
.	4B-y	2.dd
4c	4A	.
4B-y	4B-y	.
4A	4c	4cc
=24	=24	=24
2G	4d	4b-y
.	4e	4a
2F	2f	2.cc
1G	2d	.
.	.	4b-y
.	4c	[2b-y
.	4B-y	.
=25	=25	=25
1F	1c	2b-]
.	.	2a
2r	1B-y	[1b-y
2d	.	.
=26	=26	=26
2.f	0r	1b-]
4f	.	.
2f	.	2r
2f	.	2dd
=27	=27	=27
2d	0r	2.ff
2d	.	.
.	.	4ff
4B-y	.	2ff
4c	.	.
4d	.	2ff
4c	.	.
=28	=28	=28
4d	1r	2dd
4c	.	.
4B-y	.	2dd
4A	.	.
2G	2r	[1b-y
[2d	2d	.
=29	=29	=29
4d]	1.f	2b-]
4c	.	.
1B-y	.	1cc
2A	2f	2r
=30	=30	=30
1B-y	1.f	2r
.	.	2dd
2A	.	2cc
[2B-y	2f	[2dd
=31	=31	=31
4B-]	1.d	2dd]
4A	.	.
1G	.	4cc
.	.	4b-y
.	.	4a
.	.	4g
2F#i	2d	2a
=32	=32	=32
4G	2.B-y	2g
4A	.	.
4B-y	.	2r
4c	4A	.
4d	4B-y	1r
4e	4c	.
4f	4d	.
4d	4B-y	.
=33	=33	=33
4e	4c	0r
4d	4B-y	.
4c	4A	.
4B-y	4B-y	.
4A	4c	.
4B-y	4d	.
4c	4e	.
4B-y	4d	.
=34	=34	=34
4A	4c	0r
4G	4B-y	.
1G	4A	.
.	4G	.
.	1A	.
2F#i	.	.
=35	=35	=35
1G	2G	2.b-y
.	2.d	.
.	.	4a
1G	.	4b-y
.	4c	4cc
.	4B-y	4dd
.	8AL	4b-y
.	8GJ	.
=36	=36	=36
1.F	2A	4cc
.	.	4b-y
.	4F	4a
.	4G	4b-y
.	4A	4cc
.	4B-y	4dd
2E	4c	4ee
.	4B-y	4dd
=37	=37	=37
2F	4A	4cc
.	4G	4b-y
2G	1G	4a
.	.	4g
1D	.	1a
.	2F#i	.
=38	=38	=38
2r	1G	2g
2d	.	2.b-y
2.f	1r	.
.	.	4a
.	.	4b-y
4f	.	4cc
=39	=39	=39
2f	2r	2dd
2f	2d	2r
2d	2.f	1r
2d	.	.
.	4f	.
=40	=40	=40
4B-y	2f	0r
4c	.	.
4d	2f	.
4c	.	.
4d	2d	.
4c	.	.
4B-y	2d	.
4A	.	.
=41	=41	=41
2G	0B-y	2r
2.d	.	2dd
.	.	[1ff
4c	.	.
[2B-y	.	.
=42	=42	=42
2B-]	1c	2ff]
2A	.	2ff
1B-y	2r	[1ff
.	2d	.
=43	=43	=43
2A	2c	2ff]
2.B-y	1d	2ff
.	.	[1dd
4A	.	.
[2G	4c	.
.	4B-y	.
=44	=44	=44
2G]	4A	2dd]
.	4G	.
2F#i	2A	2dd
4G	1G	2.b-y
4A	.	.
4B-y	.	.
4c	.	4a
=45	=45	=45
4d	0r	4b-y
4e	.	4cc
4f	.	4dd
4d	.	4b-y
4e	.	4cc
4d	.	4b-y
4c	.	4a
4B-y	.	4b-y
=46	=46	=46
4A	0r	4cc
4B-y	.	4dd
4c	.	4ee
4B-y	.	4dd
4A	.	4cc
4G	.	4b-y
[2G	.	4a
.	.	4g
=47	=47	=47
2G]	1r	1a
2F#i	.	.
1G	2.B-y	2g
.	.	[2dd
.	4A	.
=48	=48	=48
1G	4B-y	4dd]
.	4c	4cc
.	4d	4b-y
.	4B-y	8aL
.	.	8gJ
[1F	4c	2a
.	4B-y	.
.	4A	4f
.	4B-y	4g
=49	=49	=49
2F]	4c	4a
.	4d	4b-y
2E	4e	4cc
.	4d	4b-y
2F	4c	4a
.	4B-y	4g
2G	4A	[2g
.	4G	.
=50	=50	=50
1D	1A	2g]
.	.	2f#i
[1Gl	[1Gl	[1gl
=51	=51	=51
0G]	0G]	0g]
==	==	==
*-	*-	*-
!!!system-decoration: s1,s2,s3
!!!RDF**kern: i = editorial accidental
!!!RDF**kern: l = terminal long
!!!ENC: Max Blistain
!!!END: 2026/04/01
!!!EED: Benjamin Ory
!!!EEV: 2026/04/02
!!!YEC: Copyright 2026 Benjamin Ory, All Rights Reserved
!!!ONB: Translated from MusicXML on 2026/04/02
